packages/icons/svgs/solid/bulb-leaf-solid.svg

<svg width="12" height="12" viewBox="0 0 12 12" fill="none" xmlns="http://www.w3.org/2000/svg">
<path d="M5.91096 0.000738065C3.17043 0.0461356 0.852087 2.31748 0.753485 5.05661C0.675192 7.23165 1.92356 9.11892 3.75 9.98798V11.25C3.75 11.6642 4.08579 12 4.5 12H7.5C7.91421 12 8.25 11.6642 8.25 11.25V9.98798C10.0221 9.14478 11.25 7.34307 11.25 5.24999C11.25 2.32085 8.8512 -0.0479744 5.91096 0.000738065ZM8.19205 3.41312C8.17914 3.50889 7.86396 5.77005 6.81111 6.82318C6.29901 7.33547 5.71888 7.49999 5.21218 7.49999C4.76439 7.49999 4.37374 7.37159 4.13795 7.24149L4.06311 7.20015L6.16515 5.1328L3.81015 5.57532C3.89131 5.20083 4.07277 4.81068 4.43568 4.44776C5.39982 3.48348 7.73708 3.08486 7.83632 3.06834L8.24771 2.99976L8.19205 3.41312Z" fill="black"/>
</svg>

<svg width="12" height="12" viewBox="0 0 12 12" xmlns="http://www.w3.org/2000/svg"><path d="M5.911 0C3.171.047.852 2.318.753 5.058a5.245 5.245 0 0 0 2.997 4.93v1.262c0 .414.336.75.75.75h3a.75.75 0 0 0 .75-.75V9.988A5.245 5.245 0 0 0 5.911.001Zm2.281 3.413c-.013.096-.328 2.357-1.38 3.41a2.212 2.212 0 0 1-1.6.677 2.3 2.3 0 0 1-1.074-.259l-.075-.04 2.102-2.068-2.355.442c.081-.374.263-.764.626-1.127.964-.965 3.301-1.363 3.4-1.38L8.248 3l-.056.413Z"/></svg>
